src/lib/packages/icons/src/assets/line/home-dash-star.svg

<svg width="24" height="24" viewBox="0 0 24 24" fill="none" xmlns="http://www.w3.org/2000/svg">
<path d="M17.053 21.75H6.94805C5.37705 21.75 4.03205 20.628 3.75005 19.083L2.2951 11.0999C2.1171 10.1189 2.48408 9.11599 3.25408 8.483L9.93609 2.98995C11.1331 2.00595 12.8701 2.00595 14.0671 2.98995L20.7491 8.483C21.5191 9.11599 21.8861 10.1189 21.7081 11.0999L20.2531 19.083C19.9691 20.628 18.624 21.75 17.053 21.75ZM12.0001 3.75094C11.6041 3.75094 11.21 3.88291 10.888 4.14791L4.20611 9.64095C3.85511 9.92895 3.68807 10.385 3.77007 10.831L5.22503 18.813C5.37603 19.645 6.10107 20.249 6.94707 20.249H17.0521C17.8981 20.249 18.6221 19.645 18.7741 18.813L20.2291 10.8299C20.3101 10.3839 20.143 9.92895 19.793 9.64095L13.111 4.14791C12.79 3.88391 12.3951 3.75094 12.0001 3.75094ZM19.513 18.948H19.523H19.513ZM14.292 18.25C14.093 18.25 13.894 18.2029 13.709 18.1059L12.0001 17.2149L10.292 18.1049C9.86404 18.3289 9.35607 18.29 8.96807 18.005C8.58007 17.722 8.3901 17.253 8.4721 16.78L8.79607 14.904L7.372 13.5269C7.035 13.2009 6.91511 12.7219 7.06011 12.2769C7.20511 11.8299 7.58203 11.5109 8.04803 11.4439L10.023 11.159L10.8751 9.44698C11.0881 9.01798 11.52 8.75094 12.001 8.75094C12.481 8.75094 12.913 9.01798 13.127 9.44698L13.9791 11.159L15.954 11.4439C16.42 11.5109 16.7981 11.8309 16.9421 12.2769C17.0871 12.7219 16.9661 13.2009 16.6301 13.5269L15.2061 14.904L15.5311 16.7819C15.6121 17.2549 15.4221 17.7239 15.0341 18.0069C14.8121 18.1679 14.553 18.25 14.292 18.25ZM12.0001 15.68C12.1941 15.68 12.3891 15.7259 12.5661 15.8189L13.965 16.5489L13.699 15.0129C13.631 14.6149 13.763 14.2089 14.054 13.9289L15.172 12.847L13.6181 12.623C13.2221 12.567 12.8781 12.3179 12.6981 11.9589L11.9981 10.551L11.299 11.957C11.118 12.317 10.774 12.566 10.376 12.623L8.82403 12.847L9.94305 13.9289C10.233 14.2089 10.366 14.6149 10.297 15.0119L10.0311 16.5479L11.4301 15.8189C11.6111 15.7269 11.8061 15.68 12.0001 15.68ZM15.7371 12.9279H15.747H15.7371ZM11.782 10.114L11.783 10.115L11.782 10.114Z" fill="currentColor"/>
</svg>

<svg xmlns="http://www.w3.org/2000/svg" width="24" height="24" fill="none"><path fill="currentColor" d="M17.053 21.75H6.948a3.25 3.25 0 0 1-3.198-2.667L2.295 11.1a2.753 2.753 0 0 1 .96-2.617l6.68-5.493a3.26 3.26 0 0 1 4.131 0l6.682 5.493a2.753 2.753 0 0 1 .96 2.617l-1.456 7.983a3.254 3.254 0 0 1-3.2 2.667ZM12 3.75c-.396 0-.79.133-1.112.398L4.206 9.64a1.248 1.248 0 0 0-.436 1.19l1.455 7.982a1.75 1.75 0 0 0 1.722 1.436h10.105a1.75 1.75 0 0 0 1.722-1.436l1.455-7.983a1.25 1.25 0 0 0-.436-1.189l-6.682-5.493a1.747 1.747 0 0 0-1.11-.397Zm7.513 15.198h.01-.01Zm-5.221-.698a1.25 1.25 0 0 1-.583-.144L12 17.215l-1.708.89a1.247 1.247 0 0 1-1.324-.1 1.243 1.243 0 0 1-.496-1.225l.324-1.876-1.424-1.377a1.207 1.207 0 0 1-.312-1.25c.145-.447.522-.766.988-.833l1.975-.285.852-1.712a1.25 1.25 0 0 1 1.126-.696c.48 0 .912.267 1.126.696l.852 1.712 1.975.285c.466.067.844.387.988.833a1.21 1.21 0 0 1-.312 1.25l-1.424 1.377.325 1.878c.081.473-.109.942-.497 1.225a1.262 1.262 0 0 1-.742.243ZM12 15.68c.194 0 .39.046.566.139l1.399.73-.266-1.536a1.219 1.219 0 0 1 .355-1.084l1.118-1.082-1.554-.224a1.223 1.223 0 0 1-.92-.664l-.7-1.408-.699 1.406c-.181.36-.525.609-.923.666l-1.552.224 1.119 1.082c.29.28.423.686.354 1.083l-.266 1.536 1.4-.73c.18-.091.375-.138.57-.138Zm3.737-2.752h.01-.01Zm-3.955-2.814.001.001-.001-.001Z"/></svg>
